X: 38204
T: Spring Well, The
R: reel
M: 4/4
K: Dmixolydian
|:A3 g faea|d2 AG FADd|ADFA fde^c|Add^c d3 A|
BGdB g2 eg|dcAF GEAG|EG G2 cAdc|1 Add^c d3 =c:|2 Add^c d3 A||
|:dafd abaf|g2 ec Gceg|faea dcAB|c2 Ad dcAG|
FDFA dfed|^cAaf g2 fe|dA A2 BGAG|1 FDFA d3 A:|2 FDFA d3 c||

